assets/icons/copy.svg

<?xml version="1.0" encoding="UTF-8"?>
<svg width="1024px" height="1024px" viewBox="0 0 1024 1024" version="1.1" xmlns="http://www.w3.org/2000/svg" xmlns:xlink="http://www.w3.org/1999/xlink">
    <!-- Generator: Sketch 50.2 (55047) - http://www.bohemiancoding.com/sketch -->
    <title>Artboard</title>
    <desc>Created with Sketch.</desc>
    <defs></defs>
    <g id="Artboard" stroke="none" stroke-width="1" fill="none" fill-rule="evenodd">
        <path d="M969.143718,219.428744 L731.431153,219.428744 C709.144094,219.428744 680.568471,229.142889 658.287435,242.285628 L658.287435,54.8574871 C658.287435,24.5714824 633.711435,0 603.431153,0 L365.714372,0 C335.428668,0 293.142889,17.7142965 271.999699,38.8571859 L38.8571256,272.000301 C17.7142965,293.142889 0,335.428668 0,365.714372 L0,749.714372 C0,780.000678 24.5714221,804.570654 54.8571256,804.570654 L365.714372,804.570654 L365.714372,969.145525 C365.714372,999.425807 390.285553,1024.00181 420.571256,1024.00181 L969.143718,1024.00181 C999.430024,1024.00181 1024,999.425807 1024,969.145525 L1024,274.285628 C1024,243.999925 999.430024,219.428744 969.143718,219.428744 Z M658.287435,341.143191 L658.287435,512 L487.428819,512 L658.287435,341.143191 Z M292.571256,121.714447 L292.571256,292.571256 L121.714447,292.571256 L292.571256,121.714447 Z M404.571558,491.428442 C383.428367,512.571633 365.714372,554.857412 365.714372,585.145525 L365.714372,731.426936 L73.1431153,731.426936 L73.1431153,365.714372 L310.856885,365.714372 C341.142588,365.714372 365.714372,341.143191 365.714372,310.857487 L365.714372,73.1431153 L585.143115,73.1431153 L585.143115,310.857487 L404.571558,491.428442 Z M950.856282,950.858089 L438.856885,950.858089 L438.856885,585.145525 L676.568847,585.145525 C706.855153,585.145525 731.431153,560.571332 731.431153,530.285628 L731.431153,292.571256 L950.856282,292.571256 L950.856282,950.858089 Z" id="Shape" fill="#000000" fill-rule="nonzero"></path>
    </g>
</svg>

<svg width="1024" height="1024" xmlns="http://www.w3.org/2000/svg"><path d="M969.144 219.429H731.43c-22.287 0-50.863 9.714-73.144 22.857V54.857C658.287 24.571 633.711 0 603.431 0H365.714C335.43 0 293.143 17.714 272 38.857L38.857 272C17.714 293.143 0 335.43 0 365.714v384c0 30.287 24.571 54.857 54.857 54.857h310.857v164.575c0 30.28 24.572 54.856 54.857 54.856h548.573c30.286 0 54.856-24.576 54.856-54.856v-694.86c0-30.286-24.57-54.857-54.856-54.857zM658.287 341.143V512H487.43l170.858-170.857zM292.571 121.714v170.857H121.714l170.857-170.857zm112 369.714c-21.143 21.144-38.857 63.43-38.857 93.718v146.28H73.144V365.715h237.713c30.286 0 54.857-24.57 54.857-54.857V73.143h219.43v237.714L404.571 491.428zm546.285 459.43h-512V585.146H676.57c30.286 0 54.862-24.575 54.862-54.86V292.57h219.425v658.287z" fill="#000" fill-rule="nonzero"/></svg>
